; generated by PrusaSlicer 2.9.3 on 2025-12-11 at 22:31:18 UTC

; 

; external perimeters extrusion width = 0.63mm
; perimeters extrusion width = 0.66mm
; infill extrusion width = 0.66mm
; solid infill extrusion width = 0.66mm
; top infill extrusion width = 0.60mm
; first layer extrusion width = 0.63mm

M201 X500 Y500 Z100 E5000 ; sets maximum accelerations, mm/sec^2
M203 X500 Y500 Z10 E60 ; sets maximum feedrates, mm / sec
M204 S500 T1000 ; sets acceleration (S) and retract acceleration (R), mm/sec^2
M205 X8.00 Y8.00 Z0.40 E5.00 ; sets the jerk limits, mm/sec
M205 S0 T0 ; sets the minimum extruding and travel feed rate, mm/sec

; printing object Forma-Caixa id:0 copy 0
; stop printing object Forma-Caixa id:0 copy 0

;TYPE:Custom
G90 ; use absolute coordinates
M83 ; extruder relative mode
M104 S180 ; set temporary nozzle temp to prevent oozing during homing
M140 S90 ; set final bed temp
G4 S30 ; allow partial nozzle warmup
G28 ; home all axis
G1 Z50 F240
G1 X2.0 Y10 F3000
M104 S240 ; set final nozzle temp
M190 S90 ; wait for bed temp to stabilize
M109 S240 ; wait for nozzle temp to stabilize
G1 Z0.28 F240
G92 E0
G1 X2.0 Y140 E10 F1500 ; prime the nozzle
G1 X2.3 Y140 F5000
G92 E0
G1 X2.3 Y10 E10 F1200 ; prime the nozzle
G92 E0
G21 ; set units to millimeters
G90 ; use absolute coordinates
M83 ; use relative distances for extrusion
; Filament gcode
M107
;LAYER_CHANGE
;Z:0.3
;HEIGHT:0.3
G1 E-5 F3600
G1 Z.3 F9000
G1 X102.448 Y101.506
G1 E5 F2400
M204 S500
;TYPE:Skirt/Brim
;WIDTH:0.63
G1 F1200
G1 X104.25 Y100.967 E.13269
G1 X126.75 Y100.967 E1.58731
G1 X128.309 Y101.361 E.11344
G1 X129.494 Y102.448 E.11344
G1 X130.033 Y104.25 E.13269
G1 X130.033 Y126.75 E1.58731
G1 X129.639 Y128.309 E.11344
G1 X128.552 Y129.494 E.11344
G1 X126.75 Y130.033 E.13269
G1 X104.25 Y130.033 E1.58731
G1 X102.691 Y129.639 E.11344
G1 X101.506 Y128.552 E.11344
G1 X100.967 Y126.75 E.13269
G1 X100.967 Y104.25 E1.58731
G1 X101.361 Y102.691 E.11344
G1 X102.387 Y101.572 E.1071
G1 E-3.5 F3600
;WIPE_START
G1 F7200
G1 X102.448 Y101.506 E-.04269
G1 X104.25 Y100.967 E-.89342
G1 X105.437 Y100.967 E-.56389
;WIPE_END
; printing object Forma-Caixa id:0 copy 0
G1 X105.231 Y105.231 F9000
G1 E5 F2400
;TYPE:Perimeter
;WIDTH:0.63
G1 F1200
G1 X125.769 Y105.231 E1.4489
G1 X125.769 Y115.5 E.72445
G1 X125.769 Y125.769 E.72445
G1 X105.231 Y125.769 E1.4489
G1 X105.231 Y105.321 E1.44255
G1 X104.665 Y104.665 F9000
;TYPE:External perimeter
G1 F1200
G1 X126.335 Y104.665 E1.52876
G1 X126.335 Y115.5 E.76438
G1 X126.335 Y126.335 E.76438
G1 X104.665 Y126.335 E1.52876
G1 X104.665 Y104.755 E1.52241
G1 E-3.5 F3600
;WIPE_START
G1 F7200
G1 X104.665 Y104.665 E-.04275
G1 X107.733 Y104.665 E-1.45725
;WIPE_END
G1 X125.588 Y106.569 F9000
G1 E5 F2400
;TYPE:Solid infill
;WIDTH:0.636665
G1 F1200
G1 X124.685 Y105.666 E.09115
G1 X123.876 Y105.666 E.05775
G1 X125.334 Y107.124 E.14718
G1 X125.334 Y107.933 E.05775
G1 X123.067 Y105.666 E.22884
G1 X122.257 Y105.666 E.05782
G1 X125.334 Y108.743 E.31061
G1 X125.334 Y109.552 E.05775
G1 X121.448 Y105.666 E.39227
G1 X120.639 Y105.666 E.05775
G1 X125.334 Y110.361 E.47393
G1 X125.334 Y111.171 E.05782
G1 X119.829 Y105.666 E.5557
G1 X119.02 Y105.666 E.05775
G1 X125.334 Y111.98 E.63736
G1 X125.334 Y112.789 E.05775
G1 X118.211 Y105.666 E.71903
G1 X117.401 Y105.666 E.05782
G1 X125.334 Y113.599 E.80079
G1 X125.334 Y114.408 E.05775
G1 X116.592 Y105.666 E.88246
G1 X115.783 Y105.666 E.05775
G1 X125.334 Y115.217 E.96412
G1 X125.334 Y116.027 E.05782
G1 X114.973 Y105.666 E1.04588
G1 X114.164 Y105.666 E.05775
G1 X125.334 Y116.836 E1.12755
G1 X125.334 Y117.645 E.05775
G1 X113.355 Y105.666 E1.20921
G1 X112.545 Y105.666 E.05782
G1 X125.334 Y118.455 E1.29098
G1 X125.334 Y119.264 E.05775
G1 X111.736 Y105.666 E1.37264
G1 X110.927 Y105.666 E.05775
G1 X125.334 Y120.073 E1.4543
G1 X125.334 Y120.883 E.05782
G1 X110.117 Y105.666 E1.53607
G1 X109.308 Y105.666 E.05775
G1 X125.334 Y121.692 E1.61773
G1 X125.334 Y122.501 E.05775
G1 X108.499 Y105.666 E1.6994
G1 X107.689 Y105.666 E.05782
G1 X125.334 Y123.311 E1.78116
G1 X125.334 Y124.12 E.05775
G1 X106.88 Y105.666 E1.86283
G1 X106.071 Y105.666 E.05775
G1 X125.334 Y124.929 E1.94449
G1 X125.334 Y125.334 E.02891
G1 X124.929 Y125.334 E.02891
G1 X105.666 Y106.071 E1.94449
G1 X105.666 Y106.88 E.05775
G1 X124.12 Y125.334 E1.86283
G1 X123.31 Y125.334 E.05782
G1 X105.666 Y107.69 E1.78106
G1 X105.666 Y108.499 E.05775
G1 X122.501 Y125.334 E1.6994
G1 X121.692 Y125.334 E.05775
G1 X105.666 Y109.308 E1.61773
G1 X105.666 Y110.118 E.05782
G1 X120.882 Y125.334 E1.53597
G1 X120.073 Y125.334 E.05775
G1 X105.666 Y110.927 E1.4543
G1 X105.666 Y111.736 E.05775
G1 X119.264 Y125.334 E1.37264
G1 X118.455 Y125.334 E.05775
G1 X105.666 Y112.546 E1.29093
G1 X105.666 Y113.355 E.05775
G1 X117.645 Y125.334 E1.20921
G1 X116.836 Y125.334 E.05775
G1 X105.666 Y114.164 E1.12755
G1 X105.666 Y114.973 E.05775
G1 X116.027 Y125.334 E1.04588
G1 X115.217 Y125.334 E.05782
G1 X105.666 Y115.783 E.96412
G1 X105.666 Y116.592 E.05775
G1 X114.408 Y125.334 E.88246
G1 X113.599 Y125.334 E.05775
G1 X105.666 Y117.401 E.80079
G1 X105.666 Y118.211 E.05782
G1 X112.789 Y125.334 E.71903
G1 X111.98 Y125.334 E.05775
G1 X105.666 Y119.02 E.63736
G1 X105.666 Y119.829 E.05775
G1 X111.171 Y125.334 E.5557
G1 X110.361 Y125.334 E.05782
G1 X105.666 Y120.639 E.47393
G1 X105.666 Y121.448 E.05775
G1 X109.552 Y125.334 E.39227
G1 X108.743 Y125.334 E.05775
G1 X105.666 Y122.257 E.31061
G1 X105.666 Y123.067 E.05782
G1 X107.933 Y125.334 E.22884
G1 X107.124 Y125.334 E.05775
G1 X105.666 Y123.876 E.14718
G1 X105.666 Y124.685 E.05775
G1 X106.569 Y125.588 E.09115
;LAYER_CHANGE
;Z:0.38
;HEIGHT:0.08
;BEFORE_LAYER_CHANGE
G92 E0
;0.38


G1 E-3.5 F3600
;WIPE_START
G1 F7200
G1 X105.666 Y124.685 E-.60659
G1 X105.666 Y123.876 E-.38427
G1 X106.424 Y124.634 E-.50914
;WIPE_END
G1 Z.38 F9000
;AFTER_LAYER_CHANGE
;0.38
; stop printing object Forma-Caixa id:0 copy 0
G1 X106.569 Y130.033
G1 E5 F2400
;TYPE:Skirt/Brim
;WIDTH:0.63
G1 X104.25 Y130.033 E.04727
G1 X102.691 Y129.639 E.03278
G1 X101.506 Y128.552 E.03278
G1 X100.967 Y126.75 E.03834
G1 X100.967 Y104.25 E.45861
G1 X101.361 Y102.691 E.03278
G1 X102.448 Y101.506 E.03278
G1 X104.25 Y100.967 E.03834
G1 X126.75 Y100.967 E.45861
G1 X128.309 Y101.361 E.03278
G1 X129.494 Y102.448 E.03278
G1 X130.033 Y104.25 E.03834
G1 X130.033 Y126.75 E.45861
G1 X129.639 Y128.309 E.03278
G1 X128.552 Y129.494 E.03278
G1 X126.75 Y130.033 E.03834
G1 X106.659 Y130.033 E.40951
G1 E-3.5 F3600
;WIPE_START
G1 F7200
G1 X106.569 Y130.033 E-.04275
G1 X104.25 Y130.033 E-1.10153
G1 X103.524 Y129.849 E-.35572
;WIPE_END
; printing object Forma-Caixa id:0 copy 0
G1 X105.193 Y125.807 F9000
G1 E5 F2400
;TYPE:Perimeter
;WIDTH:0.659999
G1 X105.193 Y105.193 E.44074
G1 X125.807 Y105.193 E.44074
G1 X125.807 Y115.5 E.22037
G1 X125.807 Y125.807 E.22037
G1 X105.283 Y125.807 E.43882
G1 X104.565 Y126.435 F9000
;TYPE:External perimeter
;WIDTH:0.629999
G1 F1500
G1 X104.565 Y104.565 E.44577
G1 X126.435 Y104.565 E.44577
G1 X126.435 Y115.5 E.22289
G1 X126.435 Y126.435 E.22289
G1 X104.655 Y126.435 E.44394
G1 E-3.5 F3600
;WIPE_START
G1 F7200
G1 X104.565 Y126.435 E-.04275
G1 X104.565 Y123.367 E-1.45725
;WIPE_END
G1 X105.862 Y105.74 F9000
G1 E5 F2400
;TYPE:Solid infill
;WIDTH:0.815968
G1 X105.792 Y105.669 E.00265
G1 X105.695 Y105.695 E.00267
G1 X105.669 Y105.792 E.00267
G1 X105.74 Y105.862 E.00265
G1 X105.836 Y105.836 E.00264
;WIDTH:0.659999
G1 X105.688 Y106.863 E.02218
G1 X106.863 Y105.688 E.03553
G1 X106.96 Y105.611 E.00265
;WIDTH:0.615722
G1 X107.058 Y105.535 E.00247
;WIDTH:0.571445
G1 X107.155 Y105.459 E.00227
;WIDTH:0.527168
G1 X107.093 Y105.475 E.00109
G1 X107.048 Y105.43 E.00108
G1 X107.065 Y105.368 E.00109
G1 X107.126 Y105.352 E.00107
G1 X107.172 Y105.397 E.00109
;WIDTH:0.659999
G1 X107.772 Y105.688 E.01426
G1 X105.688 Y107.772 E.06301
G1 X105.688 Y108.681 E.01944
G1 X108.681 Y105.688 E.0905
G1 X109.59 Y105.688 E.01944
G1 X105.688 Y109.59 E.11798
G1 X105.688 Y110.5 E.01946
G1 X110.5 Y105.688 E.1455
G1 X111.409 Y105.688 E.01944
G1 X105.688 Y111.409 E.17298
G1 X105.688 Y112.318 E.01944
G1 X112.318 Y105.688 E.20047
G1 X113.227 Y105.688 E.01944
G1 X105.688 Y113.227 E.22796
G1 X105.688 Y114.136 E.01944
G1 X114.136 Y105.688 E.25544
G1 X115.045 Y105.688 E.01944
G1 X105.688 Y115.045 E.28293
G1 X105.688 Y115.954 E.01944
G1 X115.954 Y105.688 E.31041
G1 X116.863 Y105.688 E.01944
G1 X105.688 Y116.863 E.3379
G1 X105.688 Y117.772 E.01944
G1 X117.772 Y105.688 E.36538
G1 X118.681 Y105.688 E.01944
G1 X105.688 Y118.681 E.39287
G1 X105.688 Y119.591 E.01946
G1 X119.591 Y105.688 E.42038
G1 X120.5 Y105.688 E.01944
G1 X105.688 Y120.5 E.44787
G1 X105.688 Y121.409 E.01944
G1 X121.409 Y105.688 E.47535
G1 X122.318 Y105.688 E.01944
G1 X105.688 Y122.318 E.50284
G1 X105.688 Y123.227 E.01944
G1 X123.227 Y105.688 E.53032
G1 X124.136 Y105.688 E.01944
G1 X105.688 Y124.136 E.55781
G1 X105.572 Y125.518 F9000
;WIDTH:0.527168
G1 F2400
G1 X105.51 Y125.535 E.00109
G1 X105.465 Y125.49 E.00108
G1 X105.482 Y125.428 E.00109
G1 X105.543 Y125.412 E.00107
G1 X105.588 Y125.457 E.00108
;WIDTH:0.571445
G1 X105.621 Y125.32 E.0026
;WIDTH:0.615722
G1 X105.655 Y125.182 E.00283
;WIDTH:0.659999
G1 X105.688 Y125.045 E.00301
G1 X125.045 Y105.688 E.58529
G1 X125.203 Y105.649 E.00348
;WIDTH:0.615722
G1 X125.361 Y105.61 E.00324
;WIDTH:0.571445
G1 X125.519 Y105.572 E.003
;WIDTH:0.527168
G1 X125.457 Y105.588 E.00109
G1 X125.412 Y105.543 E.00108
G1 X125.428 Y105.482 E.00107
G1 X125.49 Y105.465 E.00109
G1 X125.535 Y105.51 E.00108
;WIDTH:0.659999
G1 X125.312 Y106.33 E.01817
G1 X106.33 Y125.312 E.57395
G1 X107.239 Y125.312 E.01944
G1 X125.312 Y107.239 E.54647
G1 X125.312 Y108.148 E.01944
G1 X108.148 Y125.312 E.51898
G1 X109.057 Y125.312 E.01944
G1 X125.312 Y109.057 E.4915
G1 X125.312 Y109.966 E.01944
G1 X109.966 Y125.312 E.46401
G1 X110.875 Y125.312 E.01944
G1 X125.312 Y110.875 E.43653
G1 X125.312 Y111.785 E.01946
G1 X111.785 Y125.312 E.40901
G1 X112.694 Y125.312 E.01944
G1 X125.312 Y112.694 E.38153
G1 X125.312 Y113.603 E.01944
G1 X113.603 Y125.312 E.35404
G1 X114.512 Y125.312 E.01944
G1 X125.312 Y114.512 E.32656
G1 X125.312 Y115.421 E.01944
G1 X115.421 Y125.312 E.29907
G1 X116.33 Y125.312 E.01944
G1 X125.312 Y116.33 E.27159
G1 X125.312 Y117.239 E.01944
G1 X117.239 Y125.312 E.2441
G1 X118.148 Y125.312 E.01944
G1 X125.312 Y118.148 E.21662
G1 X125.312 Y119.057 E.01944
G1 X119.057 Y125.312 E.18913
G1 X119.966 Y125.312 E.01944
G1 X125.312 Y119.966 E.16165
G1 X125.312 Y120.876 E.01946
G1 X120.876 Y125.312 E.13413
G1 X121.785 Y125.312 E.01944
G1 X125.312 Y121.785 E.10665
G1 X125.312 Y122.694 E.01944
G1 X122.694 Y125.312 E.07916
G1 X123.603 Y125.312 E.01944
G1 X125.312 Y123.603 E.05167
G1 X125.356 Y124.407 E.01722
;WIDTH:0.572976
G1 X125.356 Y125.356 E.01754
G1 X124.407 Y125.356 E.01754
G1 X125.128 Y124.634 E.01886
;LAYER_CHANGE
;Z:0.46
;HEIGHT:0.08
;BEFORE_LAYER_CHANGE
G92 E0
;0.46


G1 E-3.5 F3600
;WIPE_START
G1 F7200
G1 X124.407 Y125.356 E-.48467
G1 X125.356 Y125.356 E-.45078
G1 X125.356 Y124.407 E-.45078
G1 X125.343 Y124.168 E-.11377
;WIPE_END
G1 Z.46 F9000
;AFTER_LAYER_CHANGE
;0.46
G1 X125.807 Y125.807
G1 E5 F2400
;TYPE:Perimeter
;WIDTH:0.659999
G1 X105.193 Y125.807 E.44074
G1 X105.193 Y105.193 E.44074
G1 X125.807 Y105.193 E.44074
G1 X125.807 Y115.5 E.22037
G1 X125.807 Y125.717 E.21845
G1 X126.435 Y126.435 F9000
;TYPE:External perimeter
;WIDTH:0.629999
G1 F1500
G1 X104.565 Y126.435 E.44577
G1 X104.565 Y104.565 E.44577
G1 X126.435 Y104.565 E.44577
G1 X126.435 Y115.5 E.22289
G1 X126.435 Y126.345 E.22105
G1 E-3.5 F3600
;WIPE_START
G1 F7200
G1 X126.435 Y126.435 E-.04275
G1 X123.367 Y126.435 E-1.45725
;WIPE_END
G1 X105.74 Y125.138 F9000
G1 E5 F2400
;TYPE:Solid infill
;WIDTH:0.815968
G1 X105.669 Y125.208 E.00265
G1 X105.695 Y125.305 E.00267
G1 X105.792 Y125.331 E.00267
G1 X105.862 Y125.26 E.00265
G1 X105.836 Y125.164 E.00264
;WIDTH:0.659999
G1 X106.863 Y125.312 E.02218
G1 X105.688 Y124.137 E.03553
G1 X105.688 Y123.228 E.01944
G1 X107.772 Y125.312 E.06301
G1 X108.681 Y125.312 E.01944
G1 X105.688 Y122.319 E.0905
G1 X105.688 Y121.41 E.01944
G1 X109.59 Y125.312 E.11798
G1 X110.5 Y125.312 E.01946
G1 X105.688 Y120.5 E.1455
G1 X105.688 Y119.591 E.01944
G1 X111.409 Y125.312 E.17298
G1 X112.318 Y125.312 E.01944
G1 X105.688 Y118.682 E.20047
G1 X105.688 Y117.773 E.01944
G1 X113.227 Y125.312 E.22796
G1 X114.136 Y125.312 E.01944
G1 X105.688 Y116.864 E.25544
G1 X105.688 Y115.955 E.01944
G1 X115.045 Y125.312 E.28293
G1 X115.954 Y125.312 E.01944
G1 X105.688 Y115.046 E.31041
G1 X105.688 Y114.137 E.01944
G1 X116.863 Y125.312 E.3379
G1 X117.772 Y125.312 E.01944
G1 X105.688 Y113.228 E.36538
G1 X105.688 Y112.319 E.01944
G1 X118.681 Y125.312 E.39287
G1 X119.591 Y125.312 E.01946
G1 X105.688 Y111.409 E.42038
G1 X105.688 Y110.5 E.01944
G1 X120.5 Y125.312 E.44787
G1 X121.409 Y125.312 E.01944
G1 X105.688 Y109.591 E.47535
G1 X105.688 Y108.682 E.01944
G1 X122.318 Y125.312 E.50284
G1 X123.227 Y125.312 E.01944
G1 X105.688 Y107.773 E.53032
G1 X105.688 Y106.864 E.01944
G1 X124.136 Y125.312 E.55781
G1 X125.518 Y125.428 F9000
;WIDTH:0.527168
G1 F2400
G1 X125.535 Y125.49 E.00109
G1 X125.49 Y125.535 E.00108
G1 X125.428 Y125.518 E.00109
G1 X125.412 Y125.457 E.00107
G1 X125.457 Y125.412 E.00108
;WIDTH:0.571445
G1 X125.32 Y125.379 E.0026
;WIDTH:0.615722
G1 X125.182 Y125.345 E.00283
;WIDTH:0.659999
G1 X125.045 Y125.312 E.00301
G1 X105.688 Y105.955 E.58529
G1 X105.649 Y105.797 E.00348
;WIDTH:0.615722
G1 X105.61 Y105.639 E.00324
;WIDTH:0.571445
G1 X105.572 Y105.482 E.00298
;WIDTH:0.527168
G1 X105.588 Y105.543 E.00107
G1 X105.543 Y105.588 E.00108
G1 X105.482 Y105.572 E.00107
G1 X105.465 Y105.51 E.00109
G1 X105.51 Y105.465 E.00108
;WIDTH:0.659999
G1 X106.33 Y105.688 E.01817
G1 X125.312 Y124.67 E.57395
G1 X125.312 Y123.761 E.01944
G1 X107.239 Y105.688 E.54647
G1 X108.148 Y105.688 E.01944
G1 X125.312 Y122.852 E.51898
G1 X125.312 Y121.943 E.01944
G1 X109.057 Y105.688 E.4915
G1 X109.966 Y105.688 E.01944
G1 X125.312 Y121.034 E.46401
G1 X125.312 Y120.125 E.01944
G1 X110.875 Y105.688 E.43653
G1 X111.785 Y105.688 E.01946
G1 X125.312 Y119.215 E.40901
G1 X125.312 Y118.306 E.01944
G1 X112.694 Y105.688 E.38153
G1 X113.603 Y105.688 E.01944
G1 X125.312 Y117.397 E.35404
G1 X125.312 Y116.488 E.01944
G1 X114.512 Y105.688 E.32656
G1 X115.421 Y105.688 E.01944
G1 X125.312 Y115.579 E.29907
G1 X125.312 Y114.67 E.01944
G1 X116.33 Y105.688 E.27159
G1 X117.239 Y105.688 E.01944
G1 X125.312 Y113.761 E.2441
G1 X125.312 Y112.852 E.01944
G1 X118.148 Y105.688 E.21662
G1 X119.057 Y105.688 E.01944
G1 X125.312 Y111.943 E.18913
G1 X125.312 Y111.034 E.01944
G1 X119.966 Y105.688 E.16165
G1 X120.876 Y105.688 E.01946
G1 X125.312 Y110.124 E.13413
G1 X125.312 Y109.215 E.01944
G1 X121.785 Y105.688 E.10665
G1 X122.694 Y105.688 E.01944
G1 X125.312 Y108.306 E.07916
G1 X125.312 Y107.397 E.01944
G1 X123.603 Y105.688 E.05167
G1 X124.407 Y105.644 E.01722
;WIDTH:0.572976
G1 X125.356 Y105.644 E.01754
G1 X125.356 Y106.593 E.01754
G1 X124.634 Y105.872 E.01886
;LAYER_CHANGE
;Z:0.54
;HEIGHT:0.08
;BEFORE_LAYER_CHANGE
G92 E0
;0.54


G1 E-3.5 F3600
;WIPE_START
G1 F7200
G1 X125.356 Y106.593 E-.48467
G1 X125.356 Y105.644 E-.45077
G1 X124.407 Y105.644 E-.45078
G1 X124.168 Y105.657 E-.11378
;WIPE_END
G1 Z.54 F9000
;AFTER_LAYER_CHANGE
;0.54
G1 X125.807 Y105.193
G1 E5 F2400
;TYPE:Perimeter
;WIDTH:0.659999
G1 X125.807 Y115.5 E.22037
G1 X125.807 Y125.807 E.22037
G1 X105.193 Y125.807 E.44074
G1 X105.193 Y105.193 E.44074
G1 X125.717 Y105.193 E.43882
G1 X126.435 Y104.565 F9000
;TYPE:External perimeter
;WIDTH:0.629999
G1 F1500
G1 X126.435 Y115.5 E.22289
G1 X126.435 Y126.435 E.22289
G1 X104.565 Y126.435 E.44577
G1 X104.565 Y104.565 E.44577
G1 X126.345 Y104.565 E.44394
G1 E-3.5 F3600
;WIPE_START
G1 F7200
G1 X126.435 Y104.565 E-.04275
G1 X126.435 Y107.633 E-1.45725
;WIPE_END
G1 X105.862 Y105.74 F9000
G1 E5 F2400
;TYPE:Solid infill
;WIDTH:0.815968
G1 X105.792 Y105.669 E.00265
G1 X105.695 Y105.695 E.00267
G1 X105.669 Y105.792 E.00267
G1 X105.74 Y105.862 E.00265
G1 X105.836 Y105.836 E.00264
;WIDTH:0.659999
G1 X105.688 Y106.863 E.02218
G1 X106.863 Y105.688 E.03553
G1 X106.96 Y105.611 E.00265
